X:392
T:John Stenson's #1
R:reel
H:Belongs to the "Highlander Kissed His Granny" family.
H:Other related tunes are "The Gravel Walks" #60
H:"The Jolly Seven" #559, "The Highlandman That Kissed His Granny" #567,
H:"The Highlandman" highland#10
H:Also played with parts in opposite order.
D:Kevin Burke: If the Cap Fits
Z:id:hn-reel-392
M:C|
K:Bm
fBBA Bcde|fBBA ~d3e|fBBA Bcde|1 faaf e2de:|2 fdaf eABc||
d2fd adfd|abaf edBc|d2fd adfd|1 abaf ~e3f:|2 abaf ~e3g||
P:variations
|:fBBA Bcde|fBBA ~d3e|fBBA Bcde|1 fdaf e2de:|2 fdaf eABc||
d2fd adfd|abaf edBc|d2fd adfd|1 abaf eABc:|2 abaf e2de||

